X:170
T:The Banks O' Newf'n'land
M:C|
L:1/8
K:Fm
C2|\
F2F2 A2B2|c2B2 e2f2|e2c2 B2GF|E6 CC|
F2FG A2B2|c2B2 e2fe|c2BB A2G2|
L:1/4
F3 (3GBc|\
L:1/8
d2d2 A2A2|B2e2-e2fe|c2B2 A2GG|F6 CC|
F2G2 A2B2|c2c2 B2fe|c2BA F2F2|F6 C2|
F2G2 A2B2|c2B2 e2e2|e2c2 B2GF|E6 CC|
F2FF A2B2|c2B2 e2fe|c2BA F2F2|F6  ||
